src/images/icons/icons-white@3x.svg

<?xml version="1.0" encoding="UTF-8" standalone="no"?>
<svg width="26px" height="239px" viewBox="0 0 26 239" version="1.1" xmlns="http://www.w3.org/2000/svg" xmlns:xlink="http://www.w3.org/1999/xlink">
    <!-- Generator: Sketch 39.1 (31720) - http://www.bohemiancoding.com/sketch -->
    <title>icons-white@3x</title>
    <desc>Created with Sketch.</desc>
    <defs></defs>
    <g id="Page-1" stroke="none" stroke-width="1" fill="none" fill-rule="evenodd">
        <g id="images-for-export" transform="translate(-1386.000000, -2043.000000)" fill="#FFFFFF">
            <g id="icons-white" transform="translate(1386.000000, 2043.000000)">
                <path d="M1,222 L8,215 L15,222 L8,229 L1,222 Z M18,233 L19,232 L25,238 L24,239 L18,233 Z M9,230 L16,223 L25,223 L9,239 L9,230 Z M15,235 L16,235 L16,239 L15,239 L15,235 Z M21,229 L25,229 L25,230 L21,230 L21,229 Z" id="spotlight-white"></path>
                <path d="M21.4519014,200.451235 L17.8924692,200.451235 L17.8924692,194.88108 C17.8924692,193.553043 17.8698019,191.844329 16.0430845,191.844329 C14.1903664,191.844329 13.9076919,193.291703 13.9076919,194.786411 L13.9076919,200.451235 L10.3522598,200.451235 L10.3522598,188.997583 L13.7643546,188.997583 L13.7643546,190.563627 L13.8136893,190.563627 C14.2883691,189.662935 15.4497347,188.713575 17.1811161,188.713575 C20.7858829,188.713575 21.4519014,191.084975 21.4519014,194.169727 L21.4519014,200.451235 L21.4519014,200.451235 Z M6.33881497,187.432873 C5.19544987,187.432873 4.27342426,186.508181 4.27342426,185.368149 C4.27342426,184.228784 5.19544987,183.304092 6.33881497,183.304092 C7.47751326,183.304092 8.40153893,184.228784 8.40153893,185.368149 C8.40153893,186.508181 7.47751326,187.432873 6.33881497,187.432873 L6.33881497,187.432873 Z M4.55609878,200.451235 L8.1195311,200.451235 L8.1195311,188.997583 L4.55609878,188.997583 L4.55609878,200.451235 Z M23.2246174,180 L2.77004917,180 C1.79335537,180 1,180.774688 1,181.730715 L1,202.268619 C1,203.224645 1.79335537,204.000667 2.77004917,204.000667 L23.2246174,204.000667 C24.2033112,204.000667 25,203.224645 25,202.268619 L25,181.730715 C25,180.774688 24.2033112,180 23.2246174,180 L23.2246174,180 Z" id="linkedin-white"></path>
                <path d="M12.9988029,143 C5.82105037,143 0,148.738026 0,155.816734 C0,161.479228 3.72454649,166.282552 8.89038951,167.977288 C9.5408085,168.095306 9.77783235,167.699553 9.77783235,167.359662 C9.77783235,167.055962 9.7666595,166.249507 9.76027502,165.180266 C6.14426471,165.954463 5.38131925,163.461927 5.38131925,163.461927 C4.78995672,161.981197 3.93762853,161.587017 3.93762853,161.587017 C2.75729765,160.792364 4.02701126,160.8081 4.02701126,160.8081 C5.33183953,160.89858 6.01817121,162.129112 6.01817121,162.129112 C7.17775254,164.087421 9.06117438,163.521723 9.80177415,163.193633 C9.91988704,162.365935 10.2558703,161.801023 10.6269683,161.480801 C7.74038491,161.157433 4.70536235,160.057507 4.70536235,155.146392 C4.70536235,153.747488 5.21213051,152.602715 6.04370914,151.707354 C5.90963504,151.383198 5.46351945,150.079495 6.17139875,148.315522 C6.17139875,148.315522 7.26234691,147.97091 9.74590994,149.629453 C10.78259,149.344637 11.8950858,149.203016 13.000399,149.197508 C14.1049142,149.203016 15.2166119,149.344637 16.2548881,149.629453 C18.736855,147.97091 19.8262071,148.315522 19.8262071,148.315522 C20.5356825,150.079495 20.0895669,151.383198 19.9562909,151.707354 C20.7894656,152.602715 21.2922435,153.747488 21.2922435,155.146392 C21.2922435,160.070095 18.2524325,161.153499 15.3570705,161.470573 C15.8231376,161.866326 16.2389269,162.648391 16.2389269,163.844305 C16.2389269,165.557136 16.2229657,166.939518 16.2229657,167.359662 C16.2229657,167.7027 16.4575954,168.1016 17.116793,167.976501 C22.2786458,166.277832 26,161.477654 26,155.816734 C26,148.738026 20.1789496,143 12.9988029,143" id="github-white"></path>
                <path d="M22.9362815,112.320729 C24.0376605,111.66458 24.8834047,110.625629 25.2816928,109.387716 C24.2510699,109.995189 23.1094627,110.436402 21.8944365,110.674212 C20.9213505,109.643862 19.5350452,109 18.0008559,109 C15.054874,109 12.6664765,111.373651 12.6664765,114.301371 C12.6664765,114.716876 12.7137423,115.121511 12.80466,115.50951 C8.37137423,115.288431 4.44089396,113.177826 1.80998573,109.970425 C1.35083214,110.753418 1.08777936,111.664107 1.08777936,112.635666 C1.08777936,114.474908 2.0295768,116.097606 3.46086543,117.048277 C2.58640038,117.020772 1.76395625,116.782301 1.04469805,116.385227 C1.04431764,116.407345 1.04431764,116.429556 1.04431764,116.451863 C1.04431764,119.020506 2.88302425,121.163247 5.3232525,121.650208 C4.87560628,121.771382 4.4043747,121.836127 3.91783167,121.836127 C3.57413219,121.836127 3.23994294,121.802951 2.91431289,121.741041 C3.59305754,123.847298 5.56300523,125.380015 7.89719448,125.422832 C6.07161198,126.844679 3.77156443,127.692229 1.2724679,127.692229 C0.841940086,127.692229 0.417308607,127.667181 0,127.618221 C2.36062767,129.122393 5.16452687,130 8.17689016,130 C17.9883975,130 23.3536852,121.921761 23.3536852,114.916121 C23.3536852,114.686252 23.3485497,114.457611 23.3382786,114.230293 C24.3804089,113.482838 25.2848312,112.549087 26,111.485939 C25.0433666,111.907588 24.0153115,112.192562 22.9362815,112.320729 Z" id="twitter-white"></path>
                <path d="M1,74.4000899 L1,93.6000899 C1,94.8000899 2.2,96.0000899 3.4,96.0000899 L13.8191597,96.0000899 L13.8191597,86.7060282 C13.8191597,86.7060282 14.1952534,86.7060282 13.0273438,86.7060282 L10.6915244,86.7060282 L10.6915244,83.0839025 L13.8191597,83.0839025 L13.8191597,80.4127197 C13.8191597,77.3127808 15.7124128,75.6248234 18.4778356,75.6248234 C19.8024115,75.6248234 20.9408452,75.7234697 21.2727535,75.7675323 L21.2727535,79.0071227 L19.3546814,79.0080219 C17.8507979,79.0080219 17.559625,79.7226454 17.559625,80.7713353 L17.559625,83.0839025 L21.1463208,83.0839025 L20.6792572,86.7060282 L17.559625,86.7060282 L17.559625,96.0000899 L22.6,96.0000899 C23.8,96.0000899 25,94.8000899 25,93.6000899 L25,74.4000899 C25,73.2000899 23.8,72 22.6,72 L3.4,72 C2.2,72 1,73.2000899 1,74.4000899 Z" id="facebook-white"></path>
                <path d="M5,36.9970047 C5,35.8940894 5.89005841,35 7.00010618,35 L19.9998938,35 C21.104522,35 22,35.8949789 22,36.9970047 L22,59.0029953 C22,60.1059106 21.1099416,61 19.9998938,61 L7.00010618,61 C5.89547804,61 5,60.1050211 5,59.0029953 L5,36.9970047 Z M7,40 L20,40 L20,56 L7,56 L7,40 Z M10,37 L17,37 L17,38 L10,38 L10,37 Z M13.5,60 C14.3284271,60 15,59.3284271 15,58.5 C15,57.6715729 14.3284271,57 13.5,57 C12.6715729,57 12,57.6715729 12,58.5 C12,59.3284271 12.6715729,60 13.5,60 Z" id="phone-white"></path>
                <path d="M1,1.99742191 C1,0.894276248 1.89702623,0 3.00494659,0 L22.9950534,0 C24.1023548,0 25,0.890925393 25,1.99742191 L25,17.0025781 C25,18.1057238 24.1029738,19 22.9950534,19 L3.00494659,19 C1.89764516,19 1,18.1090746 1,17.0025781 L1,1.99742191 Z M3,2 L23,2 L23,14 L3,14 L3,2 Z M10,20 L16,20 L16,23 L10,23 L10,20 Z M8,23 L18,23 L18,24 L8,24 L8,23 Z" id="monitor-white"></path>
            </g>
        </g>
    </g>
</svg>

<svg width="26" height="239" viewBox="0 0 26 239" xmlns="http://www.w3.org/2000/svg"><title>icons-white@3x</title><g fill="#FFF" fill-rule="evenodd"><path d="M1 222l7-7 7 7-7 7-7-7zm17 11l1-1 6 6-1 1-6-6zm-9-3l7-7h9L9 239v-9zm6 5h1v4h-1v-4zm6-6h4v1h-4v-1zM21.452 200.451h-3.56v-5.57c0-1.328-.022-3.037-1.849-3.037-1.853 0-2.135 1.448-2.135 2.942v5.665h-3.556v-11.453h3.412v1.566h.05c.474-.901 1.636-1.85 3.367-1.85 3.605 0 4.27 2.371 4.27 5.456v6.281zM6.339 187.433a2.064 2.064 0 1 1 0-4.129 2.064 2.064 0 0 1 0 4.129zM4.556 200.45H8.12v-11.453H4.556v11.453zM23.225 180H2.77c-.977 0-1.77.775-1.77 1.73v20.539c0 .956.793 1.732 1.77 1.732h20.455c.978 0 1.775-.776 1.775-1.732V181.73c0-.956-.797-1.731-1.775-1.731zM12.999 143C5.82 143 0 148.738 0 155.817c0 5.662 3.725 10.466 8.89 12.16.65.118.888-.277.888-.617 0-.304-.011-1.11-.018-2.18-3.616.774-4.379-1.718-4.379-1.718-.591-1.48-1.443-1.875-1.443-1.875-1.18-.795.089-.779.089-.779 1.305.09 1.991 1.321 1.991 1.321 1.16 1.958 3.043 1.393 3.784 1.065.118-.828.454-1.393.825-1.713-2.887-.324-5.922-1.423-5.922-6.335 0-1.399.507-2.543 1.339-3.439-.134-.324-.58-1.628.127-3.391 0 0 1.091-.345 3.575 1.313a12.619 12.619 0 0 1 3.254-.431c1.105.005 2.217.147 3.255.431 2.482-1.658 3.571-1.313 3.571-1.313.71 1.763.264 3.067.13 3.391.833.896 1.336 2.04 1.336 3.44 0 4.923-3.04 6.006-5.935 6.324.466.395.882 1.177.882 2.373 0 1.713-.016 3.096-.016 3.516 0 .343.235.742.894.617 5.162-1.7 8.883-6.5 8.883-12.16C26 148.738 20.179 143 12.999 143M22.936 112.32a5.323 5.323 0 0 0 2.346-2.932 10.723 10.723 0 0 1-3.388 1.286A5.343 5.343 0 0 0 18.001 109c-2.946 0-5.335 2.374-5.335 5.301 0 .416.048.82.139 1.209a15.175 15.175 0 0 1-10.995-5.54 5.29 5.29 0 0 0 1.65 7.078 5.338 5.338 0 0 1-2.415-.663v.067c0 2.569 1.838 4.711 4.278 5.198a5.372 5.372 0 0 1-2.409.091 5.335 5.335 0 0 0 4.983 3.682 10.745 10.745 0 0 1-6.625 2.27c-.43 0-.855-.026-1.272-.075A15.166 15.166 0 0 0 8.177 130c9.811 0 15.177-8.078 15.177-15.084 0-.23-.005-.458-.016-.686A10.805 10.805 0 0 0 26 111.486c-.957.422-1.985.707-3.064.835zM1 74.4v19.2C1 94.8 2.2 96 3.4 96h10.42v-9.294h-3.128v-3.622h3.127v-2.671c0-3.1 1.893-4.788 4.659-4.788 1.324 0 2.463.098 2.795.143v3.24h-1.918c-1.504 0-1.795.715-1.795 1.763v2.313h3.586l-.467 3.622h-3.12V96H22.6c1.2 0 2.4-1.2 2.4-2.4V74.4c0-1.2-1.2-2.4-2.4-2.4H3.4C2.2 72 1 73.2 1 74.4zM5 36.997C5 35.894 5.89 35 7 35h13a2 2 0 0 1 2 1.997v22.006C22 60.106 21.11 61 20 61H7a2 2 0 0 1-2-1.997V36.997zM7 40h13v16H7V40zm3-3h7v1h-7v-1zm3.5 23a1.5 1.5 0 1 0 0-3 1.5 1.5 0 0 0 0 3zM1 1.997A2 2 0 0 1 3.005 0h19.99A2 2 0 0 1 25 1.997v15.006A2 2 0 0 1 22.995 19H3.005A2 2 0 0 1 1 17.003V1.997zM3 2h20v12H3V2zm7 18h6v3h-6v-3zm-2 3h10v1H8v-1z"/></g></svg>
